austria/municipalities/70306.svg

<?xml version="1.0" encoding="UTF-8"?>
<!DOCTYPE svg PUBLIC "-//W3C//DTD SVG 1.1//EN" "http://www.w3.org/Graphics/SVG/1.1/DTD/svg11.dtd">
<svg xmlns="http://www.w3.org/2000/svg" version="1.1" width="166px" height="192px" style="shape-rendering:geometricPrecision; text-rendering:geometricPrecision; image-rendering:optimizeQuality; fill-rule:evenodd; clip-rule:evenodd" xmlns:xlink="http://www.w3.org/1999/xlink">
<g><path style="opacity:1" fill="#050605" d="M -0.5,-0.5 C 54.8333,-0.5 110.167,-0.5 165.5,-0.5C 165.5,39.5 165.5,79.5 165.5,119.5C 157.036,159.63 132.703,183.63 92.5,191.5C 85.5,191.5 78.5,191.5 71.5,191.5C 30.9362,182.936 6.93618,158.27 -0.5,117.5C -0.5,78.1667 -0.5,38.8333 -0.5,-0.5 Z"/></g>
<g><path style="opacity:1" fill="#fcfcfc" d="M 3.5,3.5 C 46.1667,3.5 88.8333,3.5 131.5,3.5C 131.5,12.8333 131.5,22.1667 131.5,31.5C 121.167,31.5 110.833,31.5 100.5,31.5C 100.819,41.4163 100.486,51.2496 99.5,61C 89.172,61.4998 78.8387,61.6665 68.5,61.5C 68.819,71.4163 68.4856,81.2496 67.5,91C 57.5056,91.4998 47.5056,91.6665 37.5,91.5C 37.5,101.5 37.5,111.5 37.5,121.5C 26.5,121.5 15.5,121.5 4.5,121.5C 3.55517,82.1791 3.22183,42.8458 3.5,3.5 Z"/></g>
<g><path style="opacity:1" fill="#185b2a" d="M 69.5,92.5 C 70.4938,83.0144 70.8271,73.3478 70.5,63.5C 81.0135,63.8276 91.3468,63.4942 101.5,62.5C 102.494,53.0144 102.827,43.3478 102.5,33.5C 113.014,33.8276 123.347,33.4942 133.5,32.5C 133.5,22.8333 133.5,13.1667 133.5,3.5C 142.833,3.5 152.167,3.5 161.5,3.5C 161.964,43.201 161.464,82.8677 160,122.5C 150.212,162.904 124.546,184.57 83,187.5C 48.9927,186.009 24.6594,170.009 10,139.5C 7.77885,134.007 6.27885,128.34 5.5,122.5C 16.8333,122.5 28.1667,122.5 39.5,122.5C 39.5,112.5 39.5,102.5 39.5,92.5C 49.5,92.5 59.5,92.5 69.5,92.5 Z"/></g>
<g><path style="opacity:1" fill="#16371c" d="M 133.5,32.5 C 123.347,33.4942 113.014,33.8276 102.5,33.5C 102.827,43.3478 102.494,53.0144 101.5,62.5C 101.5,52.5 101.5,42.5 101.5,32.5C 112.167,32.5 122.833,32.5 133.5,32.5 Z"/></g>
<g><path style="opacity:1" fill="#16371c" d="M 101.5,62.5 C 91.3468,63.4942 81.0135,63.8276 70.5,63.5C 70.8271,73.3478 70.4938,83.0144 69.5,92.5C 69.5,82.5 69.5,72.5 69.5,62.5C 80.1667,62.5 90.8333,62.5 101.5,62.5 Z"/></g>
<g><path style="opacity:1" fill="#131512" d="M 115.5,74.5 C 115.511,72.9826 116.177,71.8159 117.5,71C 129.637,63.0289 141.637,54.8622 153.5,46.5C 154.598,48.6317 155.598,50.7984 156.5,53C 148.211,64.4121 140.044,75.9121 132,87.5C 130.798,90.7735 129.798,94.1069 129,97.5C 132.341,122.503 124.508,143.003 105.5,159C 88.5375,169.355 71.2042,170.021 53.5,161C 45.8298,155.203 43.9965,148.036 48,139.5C 69.7823,116.881 92.2823,95.2139 115.5,74.5 Z"/></g>
<g><path style="opacity:1" fill="#f7f6f6" d="M 102.5,89.5 C 88.7045,104.464 74.7045,119.297 60.5,134C 75.089,139.42 77.089,147.753 66.5,159C 90.8422,164.245 108.342,155.412 119,132.5C 120.644,127.923 121.978,123.256 123,118.5C 123.667,107.5 123.667,96.5 123,85.5C 122.191,81.2398 120.691,77.2398 118.5,73.5C 129.533,65.1436 140.866,57.1436 152.5,49.5C 153.87,52.4847 153.37,55.1514 151,57.5C 142.886,67.6169 135.552,78.2836 129,89.5C 128.08,92.1013 127.413,94.7679 127,97.5C 128.418,112.965 125.752,127.632 119,141.5C 103.582,163.861 83.0824,170.361 57.5,161C 48.5532,156.31 46.0532,149.477 50,140.5C 67.0317,122.968 84.5317,105.968 102.5,89.5 Z"/></g>
<g><path style="opacity:1" fill="#185b2a" d="M 115.5,74.5 C 118.081,77.3203 119.914,80.6536 121,84.5C 121.874,97.2092 121.54,109.876 120,122.5C 114.739,144.792 100.739,157.125 78,159.5C 75.3701,159.536 72.8701,159.036 70.5,158C 77.8041,147.531 75.8041,139.198 64.5,133C 81,115.833 97.5,98.6667 114,81.5C 115.202,79.3225 115.702,76.9892 115.5,74.5 Z"/></g>
<g><path style="opacity:1" fill="#9d9a98" d="M 102.5,89.5 C 105.478,84.35 109.478,80.5167 114.5,78C 110.558,82.1138 106.558,85.9471 102.5,89.5 Z"/></g>
<g><path style="opacity:1" fill="#fdfdfd" d="M -0.5,117.5 C 6.93618,158.27 30.9362,182.936 71.5,191.5C 47.5,191.5 23.5,191.5 -0.5,191.5C -0.5,166.833 -0.5,142.167 -0.5,117.5 Z"/></g>
<g><path style="opacity:1" fill="#fdfdfd" d="M 165.5,119.5 C 165.5,143.5 165.5,167.5 165.5,191.5C 141.167,191.5 116.833,191.5 92.5,191.5C 132.703,183.63 157.036,159.63 165.5,119.5 Z"/></g>
<g><path style="opacity:1" fill="#131512" d="M 56.5,140.5 C 67.5155,140.065 70.5155,144.565 65.5,154C 56.4201,157.215 52.2534,154.048 53,144.5C 54.3756,143.295 55.5423,141.962 56.5,140.5 Z"/></g>
<g><path style="opacity:1" fill="#185a2a" d="M 56.5,142.5 C 61.7027,141.189 65.036,143.022 66.5,148C 63.8905,154.242 60.0572,155.075 55,150.5C 54.2815,147.593 54.7815,144.926 56.5,142.5 Z"/></g>
</svg>

<svg xmlns="http://www.w3.org/2000/svg" width="166" height="192" style="shape-rendering:geometricPrecision;text-rendering:geometricPrecision;image-rendering:optimizeQuality;fill-rule:evenodd;clip-rule:evenodd"><path style="opacity:1" fill="#050605" d="M-.5-.5h166v120c-8.464 40.13-32.797 64.13-73 72h-21c-40.564-8.564-64.564-33.23-72-74V-.5z"/><path style="opacity:1" fill="#fcfcfc" d="M3.5 3.5h128v28h-31c.319 9.916-.014 19.75-1 29.5-10.328.5-20.661.666-31 .5.319 9.916-.014 19.75-1 29.5-9.994.5-19.994.666-30 .5v30h-33a3795.023 3795.023 0 0 1-1-118z"/><path style="opacity:1" fill="#185b2a" d="M69.5 92.5c.994-9.486 1.327-19.152 1-29 10.513.328 20.847-.006 31-1 .994-9.486 1.327-19.152 1-29 10.514.328 20.847-.006 31-1v-29h28c.464 39.701-.036 79.368-1.5 119-9.788 40.404-35.454 62.07-77 65-34.007-1.491-58.34-17.491-73-48a69.784 69.784 0 0 1-4.5-17h34v-30h30z"/><path style="opacity:1" fill="#16371c" d="M133.5 32.5c-10.153.994-20.486 1.328-31 1 .327 9.848-.006 19.514-1 29v-30h32zM101.5 62.5c-10.153.994-20.487 1.328-31 1 .327 9.848-.006 19.514-1 29v-30h32z"/><path style="opacity:1" fill="#131512" d="M115.5 74.5c.011-1.517.677-2.684 2-3.5a1323.862 1323.862 0 0 0 36-24.5 82.466 82.466 0 0 1 3 6.5A1979.318 1979.318 0 0 0 132 87.5a86.314 86.314 0 0 0-3 10c3.341 25.003-4.492 45.503-23.5 61.5-16.963 10.355-34.296 11.021-52 2-7.67-5.797-9.504-12.964-5.5-21.5a1236.57 1236.57 0 0 1 67.5-65z"/><path style="opacity:1" fill="#f7f6f6" d="M102.5 89.5a2618.88 2618.88 0 0 1-42 44.5c14.589 5.42 16.589 13.753 6 25 24.342 5.245 41.842-3.588 52.5-26.5a109.302 109.302 0 0 0 4-14c.667-11 .667-22 0-33a37.352 37.352 0 0 0-4.5-12 621.682 621.682 0 0 1 34-24c1.37 2.985.87 5.651-1.5 8a263.527 263.527 0 0 0-22 32 43.39 43.39 0 0 0-2 8c1.418 15.465-1.248 30.132-8 44-15.418 22.361-35.918 28.861-61.5 19.5-8.947-4.69-11.447-11.523-7.5-20.5a1261.57 1261.57 0 0 1 52.5-51z"/><path style="opacity:1" fill="#185b2a" d="M115.5 74.5c2.581 2.82 4.414 6.154 5.5 10 .874 12.71.54 25.376-1 38-5.261 22.292-19.261 34.625-42 37a17.9 17.9 0 0 1-7.5-1.5c7.304-10.469 5.304-18.802-6-25L114 81.5c1.202-2.177 1.702-4.51 1.5-7z"/><path style="opacity:1" fill="#9d9a98" d="M102.5 89.5c2.978-5.15 6.978-8.983 12-11.5a189.83 189.83 0 0 1-12 11.5z"/><path style="opacity:1" fill="#fdfdfd" d="M-.5 117.5c7.436 40.77 31.436 65.436 72 74h-72v-74zM165.5 119.5v72h-73c40.203-7.87 64.536-31.87 73-72z"/><path style="opacity:1" fill="#131512" d="M56.5 140.5c11.016-.435 14.016 4.065 9 13.5-9.08 3.215-13.247.048-12.5-9.5a19.555 19.555 0 0 0 3.5-4z"/><path style="opacity:1" fill="#185a2a" d="M56.5 142.5c5.203-1.311 8.536.522 10 5.5-2.61 6.242-6.443 7.075-11.5 2.5-.718-2.907-.218-5.574 1.5-8z"/></svg>
